X: 20121
T: Jimmy's Favourite
R: jig
M: 6/8
K: Gmajor
|:d|g3 gdB|G3 GAB|c2 c B2 A|E3E3|
f2 f fed|fed f2 e|1 d2 d e2 d|B3 B2:|2 d2 d e2 f|g3 g2 D||
|:G2 G GAB|GAB GAB|G2 G A2 B|c3 cBA|
F2 F FED|FED F2 E|1 D2 D E2 D|B,3 B,2 D:|2 D2 D E2 F|G3 G2||

